X:605
T:
S:Uppt. efter föresjungning av pigan Selma Ahlgren Ganne i Burs.
R:schottis
O:Gotland, Burs
M:2/4
L:1/16
K:D
a2ab agfe|d2f2 f2f2|A2ce fgfe|d2f2 f2f2|
a2ab agfe|d2f2 f2f2|A2ce g2fe|d2d2 d4:|
K:G
|:b2b2 a2a2|g2g2 B4|d2d2 c4|e2e2 d4|
b2c'b a2ba|g2g2 B3c|d2d2 egfa|g2g2 g4:|

